X: 17
T: Vauxhall Gardens
%R: reel, march
B: "Twenty Four Country Dances for the Year 1781", Thomas Skillern, ed. p.9 #1
F: http://www.vwml.org/browse/browse-collections-dance-tune-books/browse-skillerns1781#
Z: 2014 John Chambers <jc:trillian.mit.edu>
M: 2/4
L: 1/8
K: A
|:\
c>dcB | A>BAE | e>fed | d2c2 | a>gfe | f>edc | B/c/d/e/ fA | A2G2 :|
e>feB | g>age | agfe | e2^d2 | b2 a2 | gf/e/ ^d/c/B/A/ | G2TF2 | E4 |
c>dcB | A>BAE | e>fed | d2c2 | a>gfe | f>edc | B/c/d/e/ fA | A2GE |
c>dcB | A>BAE | e>fed | d2cc | d>efg | a>gaf | ed/c/ e/d/c/B/ | A4 |]
%%begintext align
%%   Top Cu. figure down on their own Side .| 3d Cu.
%% do the same :| Cross over two Cu. lead up and Cast
%% off lead thro' the bottom and thro' the top 4 hands
%% at bottom and Right and Left at top :|.
%%endtext

%%sep 1 1 500
%%sep 1 1 500
